!!!COA:	Josquin des Prez
!!!CDT:	~1450-1521/08/27
!!!OTL:	Petite camusette
!!!AGN:	Chanson
!!!SCT:	NE 27.31
!!!SCA:	New Josquin Edition 27.31
!!!voices:	3
**kern	**kern	**kern
*staff3	*staff2	*staff1
*Ivox	*Ivox	*Ivox
*I"Contra	*I"Tenor	*I"Superius
*I'C	*I'T	*I'S
*clefF4	*clefGv2	*clefG2
*k[]	*k[]	*k[]
*M2/1	*M2/1	*M2/1
*met(C|)	*met(C|)	*met(C|)
=1-	=1-	=1-
0r	0r	0b
=2	=2	=2
0r	0e	1e/
.	.	1b\
=3	=3	=3
0r	1A/	1cc\
.	1e\	1b\
=4	=4	=4
0r	1f\	1a/
.	1e\	1g/
=5	=5	=5
0r	1d\	0a
.	1c\	.
=6	=6	=6
0r	0d	1.b\
.	.	2a/
=7	=7	=7
0r	1.e\	2.g/
.	.	4a\
.	.	4b\
.	.	4cc\
.	2d\	[2b\
=8	=8	=8
0E	1c\	4b\]
.	.	4a/
.	.	1a/
.	1B-\	.
.	.	2g/
=9	=9	=9
1AA/	2.A/	1a/
.	4B\	.
1E\	4c\	2r
.	4d\	.
.	[2e\	2g/
=10	=10	=10
1F\	4e\]	1.a/
.	4d\	.
.	1d\	.
1E\	.	.
.	2c\	2g/
=11	=11	=11
1D\	2d\	1f/
.	2A/	.
1C/	1c\	1e/
=12	=12	=12
0D	2B\	1d/
.	4A/	.
.	4G/	.
.	2A/	2r
.	[2B\	2f/
=13	=13	=13
1.E\	2B\]	1.g/
.	4E/	.
.	4F/	.
.	4G/	.
.	4A/	.
2D\	[2B\	2f/
=14	=14	=14
1C/	4B\]	1e/
.	4A/	.
.	1A/	.
1BB/	.	1d/
.	2G#i/	.
=15	=15	=15
0AA	1A/	1c/
.	1r	2r
.	.	[2c/
=16	=16	=16
0r	0c	4c/]
.	.	4d/
.	.	4e/
.	.	4f/
.	.	2g/
.	.	[2c/
=17	=17	=17
0r	1c\	4c/]
.	.	4d/
.	.	4e/
.	.	4f/
.	1e\	4g/
.	.	4a/
.	.	4b/
.	.	4cc/
=18	=18	=18
0r	1d\	4b/
.	.	4a/
.	.	1a/
.	1B\	.
.	.	2g#i/
=19	=19	=19
0F	2.A/	0a
.	4B\	.
.	2c\	.
.	[2F/	.
=20	=20	=20
1F\	4F/]	0r
.	4G/	.
.	4A/	.
.	4B/	.
1A\	4c\	.
.	4d\	.
.	4e\	.
.	4f\	.
=21	=21	=21
1G\	4e\	0r
.	4d\	.
.	1d\	.
1E\	.	.
.	2c#i\	.
=22	=22	=22
4D\	2d\	0f
4E\	.	.
4F\	4D/	.
4G\	4E/	.
2A\	4F/	.
.	4G/	.
4D\	2A/	.
4E\	.	.
=23	=23	=23
4F\	2D/	1f/
4G\	.	.
4A\	1A/	.
4B\	.	.
4c\	.	1a/
4d\	.	.
4e\	2F/	.
4f\	.	.
=24	=24	=24
4e\	1G/	1g/
4d\	.	.
1d\	.	.
.	1A/	1e/
2c#i\	.	.
=25	=25	=25
0d	2r	[0d
.	2D/	.
.	2G/	.
.	2F/	.
=26	=26	=26
1r	2G/	0d_
.	2G/	.
2r	1D/	.
2D\	.	.
=27	=27	=27
2G\	0r	0d]
2F\	.	.
2G\	.	.
2G\	.	.
=28	=28	=28
1D\	2r	0a
.	2A/	.
1r	2d\	.
.	2c\	.
=29	=29	=29
0r	2d\	1a/
.	2d\	.
.	1A/	1a/
=30	=30	=30
0A	2r	1a/
.	2c\	.
.	2f\	1a/
.	2e\	.
=31	=31	=31
1A\	2f\	0a
.	2f\	.
1A\	1c\	.
=32	=32	=32
1A\	0r	2.cc\
.	.	4b\
1A\	.	4a/
.	.	4g/
.	.	[2a/
=33	=33	=33
0A	0e	2a/]
.	.	4g/
.	.	4f/
.	.	1e/
=34	=34	=34
2.c\	1e\	2r
.	.	2.cc\
4B\	.	.
4A\	1e\	.
4G\	.	4b\
[2A\	.	[2cc\
=35	=35	=35
2A\]	1e\	2cc\]
4G\	.	4b/
4F\	.	4a/
1E\	1e\	4g/
.	.	4f/
.	.	4e/
.	.	4d/
=36	=36	=36
0r	0e	2.c/
.	.	4d/
.	.	4e/
.	.	4f/
.	.	[2g/
=37	=37	=37
0E	2.g\	4g/]
.	.	4f/
.	.	4g/
.	4f\	4a/
.	4e\	2b\
.	4d\	.
.	[2e\	[2cc\
=38	=38	=38
1AA/	2e\]	4cc\]
.	.	4b\
.	4d\	1a/
.	4c\	.
1E\	1B\	.
.	.	2g#i/
=39	=39	=39
1F\	2r	1a/
.	2A/	.
1E\	2B\	2r
.	2c\	[2g/
=40	=40	=40
1D\	2d\	4g/]
.	.	4f/
.	2B\	4f/
.	.	8e/L
.	.	8d/J
1C/	1c\	2e/
.	.	[2a/
=41	=41	=41
0D	2.B\	4a/]
.	.	4g/
.	.	1g/
.	8A/L	.
.	8G/J	.
.	1A/	.
.	.	2f/
=42	=42	=42
1.E\	1G/	2.g/
.	.	4f/
.	2r	4g/
.	.	4e/
2D\	2B\	2f/
=43	=43	=43
1C/	1c\	2e/
.	.	2.g/
1BB-/	2.d\	.
.	.	4f/
.	.	4e/
.	4e\	4d/
=44	=44	=44
0AA	2f\	2c/
.	2.e\	2.cc\
.	4d\	4b\
.	4c\	[2a/
.	4B\	.
=45	=45	=45
0r	0A	2a/]
.	.	4g/
.	.	4f/
.	.	1e/
=46	=46	=46
0A	0r	2r
.	.	2.cc\
.	.	4b\
.	.	[2a/
=47	=47	=47
1D\	1r	2a/]
.	.	4g/
.	.	4f/
1A\	2r	1e/
.	2c\	.
=48	=48	=48
1B\	4d\	1d/
.	4c\	.
.	4d\	.
.	4B\	.
1A\	1c\	2r
.	.	2a/
=49	=49	=49
1G\	2r	4b/
.	.	4a/
.	2e\	4b/
.	.	4g/
1F\	4f\	2a/
.	4e\	.
.	4f\	[2cc\
.	4d\	.
=50	=50	=50
0G	1e\	4cc\]
.	.	4b\
.	.	4cc\
.	.	4a\
.	2d\	4b\
.	.	4cc\
.	2g\	4dd\
.	.	4b\
=51	=51	=51
1.A\	2f\	2.cc\
.	2.e\	.
.	.	4dd\
.	.	4ee\
.	4A/	4dd\
2A\	[2a\	2ff\
=52	=52	=52
1A\	2a\]	2ee\
.	4g\	1dd\
.	4f\	.
1A\	1e\	.
.	.	2cc#i\
=53	=53	=53
0Dl	0dl	0ddl
==	==	==
*-	*-	*-
!!!RDF**kern: l=long note in original notation
!!!RDF**kern: i=editorial accidental
!!!RDF**kern: V=start of tuplet marker
!!!RDF**kern: Z=end of tuplet marker
!!!ENC:	Megan K. Eagen 05/28/2012
!!!END:	2012/05/28/
!!!EED:	Jesse Rodin
!!!EEV:	2012/06/20/
!!attribution-level@Jos: 4 (questionable)
!!!ONB:	Translated from MusicXML and edited on 2012/06/20/ by Craig Sapp
!!muse2ps: C^@{COA}?\n@{SCT}^i2I150v85,85,150Q16
